lib/brands/icons/alertmedia.svg

<svg xmlns="http://www.w3.org/2000/svg" fill="none" aria-hidden="true" viewBox="0 0 48 48"><g id="alertmedia-Icon"><g id="Group"><path id="Vector" fill="#D64130" d="M37.3425 6H10.6583C8.25872 6 6.31348 7.94525 6.31348 10.3448V37.6552C6.31348 40.0548 8.25872 42 10.6583 42H37.3425C39.7421 42 41.6873 40.0548 41.6873 37.6552V10.3448C41.6873 7.94525 39.7421 6 37.3425 6Z"/><path id="Vector_2" fill="white" fill-rule="evenodd" d="M14.1994 31.5935C12.2209 29.5524 11.1191 26.8104 11.1191 23.9246C11.1191 21.0371 12.2225 18.2929 14.2039 16.2516C14.3337 16.1176 14.5454 16.1176 14.675 16.2516L15.1737 16.7654C15.3032 16.8992 15.3032 17.1171 15.1737 17.2509C13.4503 19.0271 12.4907 21.413 12.4907 23.9246C12.4907 26.435 13.4487 28.8192 15.1694 30.5945C15.2992 30.7283 15.2992 30.9464 15.1694 31.0802L14.6707 31.5938C14.5411 31.7273 14.3294 31.7273 14.1994 31.5935ZM18.0991 28.1553C17.0085 27.0288 16.4007 25.5162 16.4007 23.9244C16.4007 22.3311 17.0102 20.816 18.1034 19.6896C18.2292 19.56 18.4343 19.56 18.5603 19.6896L19.0888 20.2345C19.1897 20.3382 19.1897 20.5074 19.0888 20.6111L19.0435 20.6583C18.1998 21.5275 17.7303 22.6952 17.7303 23.9244C17.7303 25.1523 18.1981 26.3179 19.0395 27.1873C19.1648 27.3167 19.1648 27.528 19.0395 27.6576L18.5562 28.1555C18.4934 28.2201 18.4167 28.2529 18.3277 28.2529C18.2387 28.2529 18.162 28.2203 18.0991 28.1553ZM31.8339 29.8051C31.7062 29.9366 31.4978 29.9369 31.3699 29.8048L30.8788 29.2991C30.7511 29.1675 30.7511 28.9528 30.8788 28.8212C32.1422 27.5172 32.8447 25.7669 32.8447 23.9244C32.8447 22.0799 32.1405 20.3284 30.8745 19.0242L30.8283 18.9765C30.726 18.8711 30.726 18.6994 30.8283 18.5937L31.3656 18.0401C31.4935 17.9082 31.7019 17.9082 31.8298 18.0401C33.3491 19.6057 34.1957 21.7102 34.1957 23.9244C34.1957 26.1372 33.3507 28.2399 31.8339 29.8051ZM33.7563 31.5935C33.6265 31.7273 33.415 31.7273 33.2847 31.5938L32.7863 31.0802C32.6563 30.9464 32.6563 30.7283 32.7858 30.5945C34.507 28.8192 35.4647 26.435 35.4647 23.9246C35.4647 21.413 34.5056 19.0271 32.7823 17.2509H32.782C32.6522 17.1171 32.6522 16.8992 32.782 16.7654L33.2807 16.2516C33.4103 16.1176 33.6222 16.1176 33.7518 16.2516C35.7334 18.2929 36.8366 21.0371 36.8366 23.9246C36.8366 26.8104 35.7351 29.5524 33.7563 31.5935ZM29.857 28.1553C29.7939 28.2203 29.7173 28.2529 29.6282 28.2529C29.5392 28.2529 29.4628 28.2201 29.4002 28.1555L28.9167 27.6576C28.7911 27.528 28.7909 27.3167 28.9167 27.1873C29.7581 26.3179 30.2256 25.1523 30.2256 23.9244C30.2256 22.6952 29.7559 21.5275 28.9124 20.6583L28.8669 20.6111C28.7665 20.5074 28.7665 20.3382 28.8669 20.2345L29.3959 19.6896C29.5217 19.56 29.7267 19.56 29.8525 19.6896C30.946 20.816 31.5552 22.3311 31.5552 23.9244C31.5552 25.5162 30.9476 27.0288 29.857 28.1553ZM16.1218 29.8051C14.6052 28.2399 13.7603 26.1372 13.7603 23.9244C13.7603 21.7104 14.6066 19.6055 16.1261 18.0401C16.254 17.9082 16.4627 17.9082 16.5903 18.0401L17.1275 18.5937C17.2297 18.6994 17.2297 18.8711 17.1275 18.9765L17.0812 19.0242C15.8154 20.3284 15.1112 22.0799 15.1112 23.9244C15.1112 25.7669 15.8138 27.5172 17.0771 28.8212C17.2048 28.9528 17.2048 29.1675 17.0769 29.2991L16.5858 29.8048C16.4581 29.9369 16.2495 29.9366 16.1218 29.8051ZM22.7207 13.4348H25.2353C25.5638 13.4348 25.8469 13.5629 26.0693 13.8124C26.2917 14.062 26.3914 14.3633 26.3634 14.7011L25.3492 26.9476C25.2991 27.5537 24.8109 28.0151 24.2207 28.0151H23.7348C23.1448 28.0151 22.6566 27.5537 22.6065 26.9476L21.5926 14.7011C21.5643 14.3636 21.6642 14.062 21.8866 13.8124C22.1088 13.5631 22.3919 13.4348 22.7207 13.4348ZM23.9778 29.2766C25.3537 29.2766 26.469 30.4255 26.469 31.8432C26.469 33.2609 25.3537 34.4099 23.9778 34.4099C22.602 34.4099 21.4867 33.2612 21.4867 31.8432C21.4869 30.4255 22.602 29.2766 23.9778 29.2766Z" clip-rule="evenodd"/></g></g></svg>

<svg xmlns="http://www.w3.org/2000/svg" fill="none" aria-hidden="true" viewBox="0 0 48 48"><path fill="#D64130" d="M37.343 6H10.658a4.345 4.345 0 0 0-4.345 4.345v27.31c0 2.4 1.946 4.345 4.345 4.345h26.684c2.4 0 4.345-1.945 4.345-4.345v-27.31c0-2.4-1.945-4.345-4.344-4.345Z"/><path fill="#fff" fill-rule="evenodd" d="M14.2 31.593c-1.98-2.04-3.08-4.783-3.08-7.668 0-2.888 1.103-5.632 3.084-7.673a.326.326 0 0 1 .471 0l.499.513c.13.134.13.352 0 .486a9.557 9.557 0 0 0-2.683 6.674 9.56 9.56 0 0 0 2.678 6.67.35.35 0 0 1 0 .485l-.498.514a.327.327 0 0 1-.472 0Zm3.9-3.438a6.067 6.067 0 0 1-1.7-4.23c0-1.594.61-3.109 1.703-4.235a.317.317 0 0 1 .457 0l.529.544c.1.104.1.273 0 .377l-.045.047a4.676 4.676 0 0 0-1.314 3.266c0 1.228.468 2.394 1.31 3.263a.341.341 0 0 1 0 .47l-.484.498a.308.308 0 0 1-.228.098.307.307 0 0 1-.229-.098Zm13.734 1.65a.322.322 0 0 1-.464 0l-.491-.506a.346.346 0 0 1 0-.478 7.017 7.017 0 0 0 1.966-4.897 7.014 7.014 0 0 0-1.97-4.9l-.047-.047a.277.277 0 0 1 0-.383l.538-.554a.322.322 0 0 1 .464 0 8.428 8.428 0 0 1 2.366 5.884 8.428 8.428 0 0 1-2.362 5.881Zm1.922 1.788a.327.327 0 0 1-.471 0l-.499-.513a.352.352 0 0 1 0-.485 9.554 9.554 0 0 0 2.679-6.67c0-2.512-.96-4.898-2.683-6.674a.351.351 0 0 1 0-.486l.499-.513a.326.326 0 0 1 .47 0c1.982 2.04 3.086 4.785 3.086 7.673 0 2.885-1.102 5.627-3.08 7.668Zm-3.899-3.438a.308.308 0 0 1-.229.098.307.307 0 0 1-.228-.098l-.483-.497a.34.34 0 0 1 0-.47 4.677 4.677 0 0 0 1.309-3.264c0-1.229-.47-2.396-1.314-3.266l-.045-.047a.273.273 0 0 1 0-.377l.529-.544c.126-.13.33-.13.456 0a6.064 6.064 0 0 1 1.703 4.234 6.067 6.067 0 0 1-1.698 4.231Zm-13.735 1.65a8.428 8.428 0 0 1-2.362-5.88c0-2.215.847-4.32 2.366-5.885a.322.322 0 0 1 .464 0l.538.554a.277.277 0 0 1 0 .383l-.047.047a7.015 7.015 0 0 0-1.97 4.9c0 1.843.703 3.593 1.966 4.897a.346.346 0 0 1 0 .478l-.491.506a.322.322 0 0 1-.464 0Zm6.599-16.37h2.514c.329 0 .612.128.834.377.223.25.322.551.294.89L25.35 26.947a1.143 1.143 0 0 1-1.128 1.067h-.486c-.59 0-1.078-.461-1.128-1.067L21.593 14.7a1.15 1.15 0 0 1 .294-.889c.222-.249.505-.377.834-.377Zm1.257 15.842c1.376 0 2.491 1.148 2.491 2.566s-1.115 2.567-2.491 2.567c-1.376 0-2.491-1.149-2.491-2.567 0-1.418 1.115-2.566 2.49-2.566Z" clip-rule="evenodd"/></svg>
